packages/IcoMoon/src/CalendarIcon/index.svg

<svg version="1.1" xmlns="http://www.w3.org/2000/svg" width="16" height="16" viewBox="0 0 16 16">
<path d="M5 6h2v2h-2zM8 6h2v2h-2zM11 6h2v2h-2zM2 12h2v2h-2zM5 12h2v2h-2zM8 12h2v2h-2zM5 9h2v2h-2zM8 9h2v2h-2zM11 9h2v2h-2zM2 9h2v2h-2zM13 0v1h-2v-1h-7v1h-2v-1h-2v16h15v-16h-2zM14 15h-13v-11h13v11z"></path>
</svg>

<svg xmlns="http://www.w3.org/2000/svg" viewBox="0 0 16 16">
  <path d="M5 6h2v2H5zm3 0h2v2H8zm3 0h2v2h-2zm-9 6h2v2H2zm3 0h2v2H5zm3 0h2v2H8zM5 9h2v2H5zm3 0h2v2H8zm3 0h2v2h-2zM2 9h2v2H2zm11-9v1h-2V0H4v1H2V0H0v16h15V0h-2zm1 15H1V4h13v11z"/>
</svg>
